images/icons/visa.svg

<svg width="34" height="11" viewBox="0 0 34 11" fill="none" xmlns="http://www.w3.org/2000/svg">
<path d="M24.7001 1.21683C24.1611 1.02137 23.3154 0.808594 22.2688 0.808594C19.5925 0.808594 17.7013 2.12392 17.6898 4.00631C17.6678 5.38985 19.0305 6.16969 20.0604 6.63596C21.1185 7.11343 21.4723 7.4107 21.4671 7.83421C21.4618 8.48679 20.6214 8.77795 19.8479 8.77795C18.773 8.77795 18.1901 8.63543 17.291 8.26892L16.9571 8.1152L16.5762 10.2898C17.2303 10.5494 18.4025 10.7774 19.6124 10.7988C22.4634 10.7988 24.3223 9.49466 24.3432 7.484C24.3652 6.38144 23.6357 5.5446 22.0814 4.85436C21.1437 4.40946 20.5565 4.10608 20.5565 3.64999C20.5565 3.24684 21.0578 2.82333 22.1045 2.82333C23.0035 2.80704 23.6367 2.99843 24.1318 3.18881L24.3882 3.29978L24.7639 1.20564L24.7001 1.21683ZM31.6571 0.98879H29.5638C28.9097 0.98879 28.424 1.15881 28.1351 1.79L24.1119 10.6603H26.9577L27.5312 9.20757L31.0029 9.21266C31.0898 9.55167 31.3347 10.6593 31.3347 10.6593H33.8477L31.6571 0.98879ZM13.8361 0.909381H16.5458L14.8503 10.585H12.1405L13.8361 0.90429V0.909381ZM6.9461 6.2379L7.22346 7.58479L9.87772 0.98879H12.7507L8.47628 10.6441H5.61584L3.27138 2.46803C3.22219 2.3255 3.16253 2.22878 3.01496 2.1453C2.22475 1.74215 1.33616 1.41332 0.355469 1.18528L0.387914 0.982681H4.75969C5.34894 1.00406 5.8283 1.18528 5.99158 1.80018L6.9461 6.24299L6.9461 6.2379ZM28.3037 7.22949L29.389 4.52043C29.3723 4.54588 29.6119 3.96355 29.748 3.59705L29.9333 4.42881L30.5612 7.22338H28.3037V7.22949Z" fill="#303030"/>
</svg>

<svg version="1.2" xmlns="http://www.w3.org/2000/svg" viewBox="0 0 34 11" width="34" height="11"><style>.a{fill:#f2f2f2}</style><path class="a" d="m24.7 1.2c-0.5-0.2-1.4-0.4-2.4-0.4-2.7 0-4.6 1.3-4.6 3.2 0 1.4 1.3 2.2 2.4 2.6 1 0.5 1.4 0.8 1.4 1.2 0 0.7-0.9 1-1.7 1-1 0-1.6-0.2-2.5-0.5l-0.3-0.2-0.4 2.2c0.6 0.2 1.8 0.5 3 0.5 2.9 0 4.7-1.3 4.7-3.3 0.1-1.1-0.7-2-2.2-2.6-1-0.5-1.5-0.8-1.5-1.3 0-0.4 0.5-0.8 1.5-0.8 0.9 0 1.5 0.2 2 0.4l0.3 0.1 0.4-2.1zm6.9-0.2h-2.1c-0.6 0-1.1 0.1-1.4 0.8l-4 8.8h2.8l0.6-1.4h3.5c0.1 0.3 0.3 1.4 0.3 1.4h2.5zm-17.8 0h2.7l-1.7 9.6h-2.7l1.7-9.6zm-6.9 5.3l0.3 1.3 2.6-6.6h2.9l-4.3 9.7h-2.8l-2.4-8.2c0-0.1-0.1-0.2-0.2-0.3q-1.2-0.6-2.7-1v-0.2h4.4c0.6 0.1 1.1 0.2 1.2 0.9l1 4.4zm21.4 1l1-2.7c0 0 0.3-0.6 0.4-0.9l0.2 0.8 0.6 2.8h-2.2z"/></svg>
